assets/icons/custom/custom69.svg

<?xml version="1.0"?><svg xmlns="http://www.w3.org/2000/svg" width="100" height="100" viewBox="0 0 100 100"><g fill="#fff"><path d="m52.6 45.1c-5.7-4.3-11.5-2.2-15.3 1.4-1.4 1.3-3.6 2.1-6 2.8-2.8 0.9-5.7 1.8-7.8 3.9-5.6 5.5-4.5 12.1 3.3 19.8l0.1 0.1 0.1 0.1c4.6 4.5 8.8 6.7 12.6 6.7 2.8 0 5.3-1.1 7.7-3.4 2.1-2 3.1-4.9 4-7.6 0.8-2.3 1.6-4.6 2.9-5.9 2.3-2.2 3.6-4.8 3.9-7.4 0.2-1.9-0.2-4.6-2.4-7.4 0 0-1.2-1.6-3.1-3.1z m-12.4 24.1c-0.5 0.5-1.2 0.8-2 0.8s-1.4-0.3-1.9-0.8l-5.5-5.5c-1.1-1.1-1.1-2.8 0-3.9s2.8-1.1 3.9 0l5.5 5.5c1.1 1.1 1.1 2.8 0 3.9z m4.8-8.2c-2.8 0-5-2.2-5-5s2.2-5 5-5 5 2.2 5 5-2.2 5-5 5z m34.4-35.8l-4.6-4.6c-0.8-0.8-2.2-0.8-3.1 0l-5.1 5.1c-0.8 0.8-0.8 2.2 0 3.1l0.2 0.2-10.3 10.3c-0.4 0.4-0.4 1.1 0 1.5 0.8 0.7 2.1 1.9 2.9 2.7 0.4 0.4 1 0.4 1.4 0l10.2-10.2 0.2 0.2c0.8 0.8 2.2 0.8 3.1 0l5.1-5.1c0.8-0.9 0.8-2.3 0-3.2z"></path></g></svg>

<svg xmlns="http://www.w3.org/2000/svg" x="0px" y="0px"
	 width="100px" height="100px" viewBox="0 0 100 100" enable-background="new 0 0 100 100" xml:space="preserve">
<g>
	<path fill="#FFFFFF" d="M52.6,45.1c-5.7-4.3-11.5-2.2-15.3,1.4c-1.4,1.3-3.6,2.1-6,2.8c-2.8,0.9-5.7,1.8-7.8,3.9
		C17.9,58.7,19,65.3,26.8,73l0.1,0.1L27,73.2c4.6,4.5,8.8,6.7,12.6,6.7c2.8,0,5.3-1.101,7.7-3.4c2.1-2,3.1-4.9,4-7.6
		C52.1,66.6,52.9,64.3,54.2,63c2.3-2.2,3.6-4.8,3.899-7.4C58.3,53.7,57.9,51,55.7,48.2C55.7,48.2,54.5,46.6,52.6,45.1z M40.2,69.2
		c-0.5,0.5-1.2,0.8-2,0.8c-0.8,0-1.4-0.3-1.9-0.8l-5.5-5.5c-1.1-1.101-1.1-2.8,0-3.9c1.1-1.1,2.8-1.1,3.9,0l5.5,5.5
		C41.3,66.4,41.3,68.1,40.2,69.2z M45,61c-2.8,0-5-2.2-5-5s2.2-5,5-5s5,2.2,5,5S47.8,61,45,61z"/>
	<path fill="#FFFFFF" d="M79.4,25.2L74.8,20.6c-0.8-0.8-2.2-0.8-3.1,0L66.6,25.7c-0.8,0.8-0.8,2.2,0,3.1l0.2,0.2L56.5,39.3
		c-0.4,0.4-0.4,1.1,0,1.5c0.8,0.7,2.1,1.9,2.9,2.7c0.399,0.4,1,0.4,1.399,0L71,33.3l0.2,0.2c0.8,0.8,2.2,0.8,3.1,0l5.101-5.1
		C80.2,27.5,80.2,26.1,79.4,25.2z"/>
</g>
</svg>
